X: 24764
T: Maenpaan Heikin Valssi
R: waltz
M: 3/4
K: Aminor
E E E E E E|c2 B2 A2|B B G G E E|A2 G2 E2|
w:Ta-li ta-li ta-li, rin- tun- tin, ti-li tu-li lu-li, rin- tun- tin,
E E C C E E|c2 B2 G2|E E E G B G|A4 A2||
w:ta-li tu-li tu-li, rin tun tin, ta-li tu-li tu-li, raa- tan.
B B G G G B|e2 d2 e2|B B B A G B|e2 d2 e z|
w:Ta-li tu-li tu-li, rin- tun- tin, ta-li tu-li tu-li, rin- tun- tin.
A A G G E E|c2 B2 A2|E E E G B G|A4 A2||
w:Ra-li tu-li tu-li, rin- tun- tin, ta-li tu-li tu-li raa- ta.
B B G G G B|e2 d2 e2|B B B A G B|d2 B2 d2|
w:Ta-li tu-li tu-li, rin- tun- tin, ta-li tu-li tu-li, rin- tun- tin.
B B G G E E|c2 B2 A2|E E E G B G|A4 z2||
w:Ta-li tu-li tu-li, rin- tun- tin, ta-li tu-li tu-li raa.

